X: 2170
T: Şevk`efzâ Peşrev
C: Numan Ağa
O: Turkey
F: http://compmusic.upf.edu/node/140
N: sevkefza--pesrev--sakil----numan_aga
N: makam= sevkefza
N: form= pesrev
N: usul= sakil = 32/4
M: 32/4
L: 1/16
K: C _B _7/8d  
Q: 1/4=84
%%MIDI tuningsystem comma53
c6 g2 _7/8a6 g2  | f8 e8  | f3 e f2 g2 _7/8a2 g2 f2 e2  | \
w:  1. HANE  |   |   | 
f2 g2 f2 e2 f4 g4  | e4 f4 f4 e4  | 
w:   |   | 
_7/8a4 g2 f2 e2 _3/4d2 c2 _2/4B2  | \
w:   | 
c4 _2/4B2 c2 _3/4d4 c2 d2  | e4 _3/4d2 e2 f4 e2 f2  | \
w:   |   | 
e2 g2 f8 e4  | 
w:   | 
e2 f2 g2 f2 e6 z2  | e2 f2 g2 _7/8a2 g2 f2 e2 _3/4d2  | \
w:   |   | 
e4 e2 _3/4d2 c2 d2 e4  | z4 c2 c2 c4 g4  | 
w:   |   | 
g3 f e2 g2 f3 e _3/4d2 f2  | e3 _3/4d c2 e2 d2 c2 B2 _1/4A2  | \
w:   |   | 
B2 c2 B2 _1/4A2 B4 c4  | 
w:   | 
c2 z2 c2 c2 c2 _3/4d2 e2 d2  | e2 c2 _3/4d2 B2 c2 A2 B2 G2  | \
w:   |   | 
z2 A B A2 G2 A2 B2 c2 =d2  | 
w:   | 
c4 B2 A2 A4 G2 F2  | F4 G2 G2 G4 c2 B2  | \
w:   |   | 
A6 G2 F3 E =D2 E2  | F8 E4 G2 F2  | 
w:   |   | 
F6 G2 A2 G2 A4  | G4 A8 c4  | c2 B2 c2 B2 A3 G F4  | \
w:   |  2. HANE  |   | 
c2 e2 _3/4d2 c2 c3 B _1/4A4  | 
w:   | 
B2 c2 B2 _1/4A2 B4 c2 _3/4d2  | B4 c8 _3/4d4  | \
w:   |   | 
e4 _3/4d2 e2 f4 e2 f2  | g8 g2 _7/8a2 _1/4b2 a2  | 
w:   |   | 
g4 f2 e2 _3/4d4 c4  | z4 c2 c2 c4 g4  | \
w:   |   | 
f8 e8  | f3 e f2 g2 _7/8a2 g2 f2 e2  | \
w:   |   | 
e4 e2 _3/4d2 c2 d2 e4  | 
w:   | 
z4 e2 e2 e4 g4  | g2 f2 g2 f2 f2 e2 f2 e2  | \
w:   |   | 
e2 _3/4d2 e2 d2 c4 _7/8a2 g2  | g4 f2 e2 e2 _3/4d2 c4  | 
w:   |   | 
c2 z2 c2 c2 c2 _3/4d2 e2 d2  | e2 c2 _3/4d2 B2 c2 A2 B2 G2  | \
w:   |   | 
z2 A B A2 G2 A2 B2 c2 =d2  | 
w:   | 
c4 B2 A2 A4 G2 F2  | F4 G2 G2 G4 c2 B2  | \
w:   |   | 
A6 G2 F3 E =D2 E2  | F8 E4 G2 F2  | 
w:   |   | 
F6 g2 f2 g2 a4  | g4 a8 c'2 b2  | a4 a2 g2 a2 b2 c'2 b2  | \
w:   |  3. HANE  |   | 
c'3 b a2 b2 a4 g4  | 
w:   | 
a3 g f2 g2 a2 g2 a4  | f4 g8 a4  | g3 f e2 f2 g8  | \
w:   |   |   | 
f2 g2 a2 b2 a4 g4  | 
w:   | 
a2 g2 f2 e2 =d2 e2 f4  | f4 g8 f2 e2  | \
w:   |   | 
=d6 e2 f4 g2 a2  | g3 f e2 f2 e2 f2 g2 f2  | 
w:   |   | 
f6 c2 =d2 e2 f4  | e4 f8 f2 e2  | e4 e2 =d2 d4 d2 c2  | \
w:   |   |   | 
c4 c2 B2 B4 B2 A2  | 
w:   | 
A4 A2 G2 F2 G2 A4  | z4 F2 F2 F4 G4  | \
w:   |   | 
A6 G2 A2 B2 c2 B2  | c3 B A2 B2 A4 G4  | 
w:   |   | 
F6 G2 A2 G2 A4  | z4 G2 G2 G4 F2 E2  | \
w:   |   | 
=D6 E2 F4 G4  | F8 E4 G2 F2  | F6 _3/4d2 c2 _2/4B2 c4  | 
w:   |   |   | 
_2/4B4 c8 _3/4d4  | _3/4d4 c2 d2 c4 _2/4B2 c2  | \
w:  4. HANE  |   | 
_2/4B4 A2 _7/8B2 A4 ^G4  | A6 _2/4B2 c2 B2 c4  | \
w:   |   | 
_2/4B4 c8 _3/4d4  | 
w:   | 
e4 _3/4d2 e2 f4 e2 f2  | g8 g4 f2 e2  | \
w:   |   | 
g3 f e2 f2 e4 f2 g2  | ^f4 g8 c'4  | \
w:   |   | 
_1/4b4 c'2 b2 _7/8a4 b2 a2  | 
w:   | 
g4 _7/8a2 g2 f4 g2 f2  | e2 _7/8a2 g2 f2 e2 _3/4d2 c4  | \
w:   |   | 
_1/4B4 c8 _1/4b2 _7/8a2  | g4 g2 f2 e4 e2 _3/4d2  | 
w:   |   | 
c4 _3/4d2 c2 c3 B _1/4A2 B2  | c6 B2 _1/4A2 B2 c4  | \
w:   |   | 
c2 z2 c2 c2 c2 _3/4d2 e2 d2  | e2 c2 _3/4d2 B2 c2 A2 B2 G2  | 
w:   |   | 
z2 A B A2 G2 A2 B2 c2 =d2  | c4 B2 A2 A4 G2 F2  | \
w:   |   | 
F4 G2 G2 G4 c2 B2  | 
w:   | 
A6 G2 F3 E =D2 E2  | F8 E4 G2 F2  | F12 z4  | |


